X:65
T:Sergeant Early's Dream (reel) 
B:BSMI3.16
F:file ID bsmi.3/65serg_e
Z:bill@capeirish.com
R:reel
Q:180
M:4/4
L:1/8
K:Dm
cB|A2DE FAcA|GECD E2EF|DA,DE FEFG|Ad~d2 fedc|
A2DE FAcA|GECD EDEF|DA,DE FAcA|GFEF D2 :|
FG|Add^c d3e|f2ed cAGF|ECEF c=Bcd|ecdc AcGc|
Add^c d3e|f2ed cAGc|AE~E2 cE~E2|CEGE D2 :|

